packages/assets/static/images/icons/scroll.svg

<svg width="24" height="24" viewBox="0 0 24 24" xmlns="http://www.w3.org/2000/svg">
<path d="M9 9.75C9 9.55109 9.07902 9.36032 9.21967 9.21967C9.36032 9.07902 9.55109 9 9.75 9H15.75C15.9489 9 16.1397 9.07902 16.2803 9.21967C16.421 9.36032 16.5 9.55109 16.5 9.75C16.5 9.94891 16.421 10.1397 16.2803 10.2803C16.1397 10.421 15.9489 10.5 15.75 10.5H9.75C9.55109 10.5 9.36032 10.421 9.21967 10.2803C9.07902 10.1397 9 9.94891 9 9.75ZM9.75 13.5H15.75C15.9489 13.5 16.1397 13.421 16.2803 13.2803C16.421 13.1397 16.5 12.9489 16.5 12.75C16.5 12.5511 16.421 12.3603 16.2803 12.2197C16.1397 12.079 15.9489 12 15.75 12H9.75C9.55109 12 9.36032 12.079 9.21967 12.2197C9.07902 12.3603 9 12.5511 9 12.75C9 12.9489 9.07902 13.1397 9.21967 13.2803C9.36032 13.421 9.55109 13.5 9.75 13.5ZM21.75 18C21.75 18.7956 21.4339 19.5587 20.8713 20.1213C20.3087 20.6839 19.5456 21 18.75 21H8.25C7.45435 21 6.69129 20.6839 6.12868 20.1213C5.56607 19.5587 5.25 18.7956 5.25 18V6C5.25 5.60218 5.09196 5.22064 4.81066 4.93934C4.52936 4.65804 4.14782 4.5 3.75 4.5C3.35218 4.5 2.97064 4.65804 2.68934 4.93934C2.40804 5.22064 2.25 5.60218 2.25 6C2.25 6.53813 2.70281 6.90188 2.7075 6.90563C2.83163 7.00115 2.92273 7.13313 2.96804 7.28306C3.01334 7.43299 3.01057 7.59335 2.96011 7.74162C2.90965 7.8899 2.81404 8.01866 2.68668 8.10983C2.55933 8.201 2.40663 8.25002 2.25 8.25C2.08781 8.25028 1.93003 8.19725 1.80094 8.09906C1.69219 8.01937 0.75 7.27594 0.75 6C0.75 5.20435 1.06607 4.44129 1.62868 3.87868C2.19129 3.31607 2.95435 3 3.75 3H16.5C17.2956 3 18.0587 3.31607 18.6213 3.87868C19.1839 4.44129 19.5 5.20435 19.5 6V15.75H20.25C20.4123 15.75 20.5702 15.8026 20.7 15.9C20.8125 15.9806 21.75 16.7241 21.75 18ZM9.02437 16.2638C9.07562 16.1125 9.17342 15.9813 9.30376 15.889C9.4341 15.7968 9.59031 15.7481 9.75 15.75H18V6C18 5.60218 17.842 5.22064 17.5607 4.93934C17.2794 4.65804 16.8978 4.5 16.5 4.5H6.34594C6.61119 4.95535 6.75064 5.47302 6.75 6V18C6.75 18.3978 6.90804 18.7794 7.18934 19.0607C7.47064 19.342 7.85218 19.5 8.25 19.5C8.64782 19.5 9.02936 19.342 9.31066 19.0607C9.59196 18.7794 9.75 18.3978 9.75 18C9.75 17.4619 9.29719 17.0981 9.2925 17.0944C9.16469 17.0029 9.06963 16.8729 9.02136 16.7233C8.97308 16.5738 8.97414 16.4127 9.02437 16.2638ZM20.25 18C20.2406 17.7221 20.1334 17.4565 19.9472 17.25H11.1347C11.2101 17.4929 11.2483 17.7457 11.2481 18C11.2488 18.5267 11.1101 19.0443 10.8459 19.5H18.75C19.1478 19.5 19.5294 19.342 19.8107 19.0607C20.092 18.7794 20.25 18.3978 20.25 18Z"/>
</svg>

<svg viewBox="0 0 24 24" xmlns="http://www.w3.org/2000/svg" aria-hidden="true" fill="currentColor"><path d="M9 9.75A.75.75 0 0 1 9.75 9h6a.75.75 0 1 1 0 1.5h-6A.75.75 0 0 1 9 9.75m.75 3.75h6a.75.75 0 1 0 0-1.5h-6a.75.75 0 1 0 0 1.5m12 4.5a3 3 0 0 1-3 3H8.25a3 3 0 0 1-3-3V6a1.5 1.5 0 0 0-3 0c0 .538.453.902.458.906A.75.75 0 0 1 1.8 8.099C1.692 8.02.75 7.276.75 6a3 3 0 0 1 3-3H16.5a3 3 0 0 1 3 3v9.75h.75a.75.75 0 0 1 .45.15c.113.08 1.05.824 1.05 2.1M9.024 16.264a.76.76 0 0 1 .726-.514H18V6a1.5 1.5 0 0 0-1.5-1.5H6.346c.265.455.405.973.404 1.5v12a1.5 1.5 0 0 0 3 0c0-.538-.453-.902-.457-.906a.73.73 0 0 1-.269-.83M20.25 18a1.18 1.18 0 0 0-.303-.75h-8.812c.075.243.113.496.113.75 0 .527-.138 1.044-.402 1.5h7.904a1.5 1.5 0 0 0 1.5-1.5"/></svg>
